X:1
T:Deo gratias
T:William Byrd (c.1540-1623)
T:© Choral Public Domain Library 2010
T:Deo gratias
T:© Choral Public Domain Library 2010
C:William Byrd (c.1540-1623)
Z:© Choral Public Domain Library 2010
%%score [ 1 2 3 4 ]
L:1/8
M:4/4
K:C
V:1 treble nm="Alto" snm="A."
V:2 treble-8 transpose=-12 nm="Tenor" snm="T."
V:3 treble-8 transpose=-12 nm="Tenor" snm="T."
V:4 bass nm="Bass" snm="B."
V:1
 [Dd]2 |[M:4/2] z16 | z16 | G8 ^F8 | G8 E8 | D8 z4 G4- | G2 A2 B2 c2 d8 | B4 c8 B4 | G8 z4 D4- | %9
w: |||De- o|gra- ti-|as. De-||o gra- ti-|as. De-|
 D2 E2 ^F2 G2 A8 | ^F4 A6 G2 G4- | G4 ^F4 | !fermata!G16 |] %13
w: |o gra- * *|* ti-|as.|
V:2
 [Gg]2 |[M:4/2] G6 A2 B2 c2 d4- | d4 B4 A4 d4- | d4 ^c4 d4 d4 | B4 c8 G4 | G8 z8 | g8 ^f8 | %7
w: |De- * * * *|* o gra- *|* ti- as. De-|o gra- ti-|as.|De- o|
 g6 f2 e4 d2 c2 | B2 c2 d4 A8 | d8 ^c8 | d6 c2 B4 A2 G2 | A6 A2 | !fermata!G16 |] %13
w: gra- * * * *|* ti- * as.|De- o|gra- * * * *|* ti-|as.|
V:3
 [Dd]2 |[M:4/2] z8 G6 A2 | B2 c2 d8 B4 | G6 G2 A8 | z8 G6 A2 | B2 c2 d8 B4 | d4 G4 A4 A4 | %7
w: |De- *|* * * o|gra- ti- as.|De- *|* * * o|gra- ti- as. De-|
 G4 E6 ^F2 G4 | z4 G8 ^F4 | G4 D4 E4 A4- | A4 D4 d8- | d4 A2 c2 | !fermata!B16 |] %13
w: o gra- ti- as.|De- o|gra- ti- as. De-|* o gra-|* ti- *|as.|
V:4
 [G,,G,]2 |[M:4/2] z16 | G,8 ^F,4 G,4- | G,4 E,4 D,8 | z4 C,6 D,2 E,2 ^F,2 | G,8 ^F,4 G,4- | %6
w: ||De- o gra-|* ti- as.|De- * * *|* o gra-|
 G,4 E,4 D,8 | z8 z4 G,,4- | G,,2 A,,2 B,,2 C,2 D,8 | B,,8 A,,6 A,,2 | D,8 D,8- | D,4 D,4 | %12
w: * ti- as.|De-||o gra- ti-|as, gra-|* ti-|
 !fermata!G,,16 |] %13
w: as.|

